public/images/sidebar/whats-new.svg

<svg width="16" height="16" viewBox="0 0 16 16" fill="none" xmlns="http://www.w3.org/2000/svg">
<path fill-rule="evenodd" clip-rule="evenodd" d="M3.25922 8C3.5865 8 3.85181 8.22386 3.85181 8.5V13H12.1481V8.5C12.1481 8.22386 12.4134 8 12.7407 8C13.068 8 13.3333 8.22386 13.3333 8.5V13.5C13.3333 13.7761 13.068 14 12.7407 14H3.25922C2.93194 14 2.66663 13.7761 2.66663 13.5V8.5C2.66663 8.22386 2.93194 8 3.25922 8Z" fill="#121312"/>
<path fill-rule="evenodd" clip-rule="evenodd" d="M2 5.8095C2 5.54651 2.24421 5.33331 2.54545 5.33331H13.4545C13.7558 5.33331 14 5.54651 14 5.8095V8.19046C14 8.45345 13.7558 8.66665 13.4545 8.66665H2.54545C2.24421 8.66665 2 8.45345 2 8.19046V5.8095ZM3.09091 6.28569V7.71427H12.9091V6.28569H3.09091Z" fill="#121312"/>
<path fill-rule="evenodd" clip-rule="evenodd" d="M8.00004 5.33331C8.36823 5.33331 8.66671 5.56156 8.66671 5.84312V13.4902C8.66671 13.7717 8.36823 14 8.00004 14C7.63185 14 7.33337 13.7717 7.33337 13.4902V5.84312C7.33337 5.56156 7.63185 5.33331 8.00004 5.33331Z" fill="#121312"/>
<path fill-rule="evenodd" clip-rule="evenodd" d="M5.40745 3.14286C5.1717 3.14286 4.94561 3.23316 4.77891 3.39391C4.61221 3.55465 4.51856 3.77267 4.51856 4C4.51856 4.22733 4.61221 4.44535 4.77891 4.60609C4.94561 4.76684 5.1717 4.85714 5.40745 4.85714H7.27649C7.20415 4.67464 7.11258 4.47395 6.99932 4.27538C6.6266 3.62191 6.11494 3.14286 5.40745 3.14286ZM8.07411 5.42857C8.6552 5.31651 8.65516 5.31631 8.65511 5.3161L8.65501 5.31564L8.65478 5.3145L8.65413 5.31145L8.65214 5.30225C8.6505 5.29476 8.64823 5.2846 8.64529 5.27193C8.63943 5.24661 8.63091 5.21123 8.6195 5.16721C8.5967 5.0793 8.5622 4.95624 8.51405 4.80963C8.41844 4.51847 8.2657 4.1242 8.03779 3.72462C7.5957 2.94952 6.77402 2 5.40745 2C4.85737 2 4.32982 2.21071 3.94086 2.58579C3.55189 2.96086 3.33337 3.46957 3.33337 4C3.33337 4.53043 3.55189 5.03914 3.94086 5.41421C4.32982 5.78929 4.85737 6 5.40745 6H8.07411C8.25165 6 8.41983 5.92324 8.53239 5.79085C8.64494 5.65846 8.69001 5.48438 8.6552 5.31651L8.07411 5.42857Z" fill="#121312"/>
<path fill-rule="evenodd" clip-rule="evenodd" d="M7.96229 3.72462C8.40438 2.94952 9.22606 2 10.5926 2C11.1427 2 11.6703 2.21071 12.0592 2.58579C12.4482 2.96086 12.6667 3.46957 12.6667 4C12.6667 4.53043 12.4482 5.03914 12.0592 5.41421C11.6703 5.78929 11.1427 6 10.5926 6H7.92597C7.74843 6 7.58025 5.92324 7.46769 5.79085C7.35514 5.65846 7.31007 5.48438 7.34489 5.31651L7.92597 5.42857C7.34489 5.31651 7.34493 5.31631 7.34497 5.3161L7.34507 5.31564L7.34531 5.3145L7.34595 5.31145L7.34794 5.30225C7.34958 5.29476 7.35186 5.2846 7.35479 5.27193C7.36065 5.24661 7.36917 5.21123 7.38059 5.16721C7.40338 5.0793 7.43788 4.95624 7.48603 4.80963C7.58165 4.51847 7.73438 4.1242 7.96229 3.72462ZM8.72359 4.85714H10.5926C10.8284 4.85714 11.0545 4.76684 11.2212 4.60609C11.3879 4.44535 11.4815 4.22733 11.4815 4C11.4815 3.77267 11.3879 3.55465 11.2212 3.39391C11.0545 3.23316 10.8284 3.14286 10.5926 3.14286C9.88514 3.14286 9.37349 3.62191 9.00076 4.27538C8.88751 4.47395 8.79593 4.67464 8.72359 4.85714ZM8.50685 5.5416C8.50682 5.54175 8.50683 5.54174 8.50686 5.54156L8.50685 5.5416Z" fill="#121312"/>
</svg>

<svg width="16" height="16" fill="none" xmlns="http://www.w3.org/2000/svg"><path fill-rule="evenodd" clip-rule="evenodd" d="M3.26 8c.327 0 .592.224.592.5V13h8.296V8.5c0-.276.266-.5.593-.5.327 0 .592.224.592.5v5c0 .276-.265.5-.592.5H3.259c-.327 0-.592-.224-.592-.5v-5c0-.276.265-.5.592-.5z" fill="#162D45"/><path fill-rule="evenodd" clip-rule="evenodd" d="M2 5.81c0-.263.244-.477.545-.477h10.91c.3 0 .545.214.545.477v2.38c0 .263-.244.477-.546.477H2.545c-.3 0-.545-.214-.545-.477V5.81zm1.09.476v1.428h9.82V6.286H3.09z" fill="#162D45"/><path fill-rule="evenodd" clip-rule="evenodd" d="M8 5.333c.368 0 .667.229.667.51v7.647c0 .282-.299.51-.667.51-.368 0-.667-.228-.667-.51V5.843c0-.281.299-.51.667-.51z" fill="#162D45"/><path fill-rule="evenodd" clip-rule="evenodd" d="M5.407 3.143a.906.906 0 00-.628.25.842.842 0 00-.26.607c0 .227.093.445.26.606.167.16.393.251.628.251h1.87a4.61 4.61 0 00-.278-.582c-.372-.653-.884-1.132-1.592-1.132zm2.667 2.286l.581-.113V5.31l-.003-.009a2.503 2.503 0 00-.033-.135 5.993 5.993 0 00-.582-1.443C7.597 2.95 6.775 2 5.408 2c-.55 0-1.077.21-1.466.586A1.964 1.964 0 003.333 4c0 .53.219 1.04.608 1.414.389.375.916.586 1.466.586h2.667a.601.601 0 00.458-.21.556.556 0 00.123-.473l-.58.112z" fill="#162D45"/><path fill-rule="evenodd" clip-rule="evenodd" d="M7.962 3.725C8.404 2.95 9.226 2 10.592 2c.55 0 1.078.21 1.467.586.39.375.608.884.608 1.414 0 .53-.219 1.04-.608 1.414A2.114 2.114 0 0110.593 6H7.926a.601.601 0 01-.458-.21.556.556 0 01-.123-.473l.58.112-.58-.113V5.31l.003-.009a2.503 2.503 0 01.033-.135 5.993 5.993 0 01.582-1.443zm.762 1.132h1.869c.235 0 .461-.09.628-.25a.842.842 0 00.26-.607.842.842 0 00-.26-.606.906.906 0 00-.628-.251c-.708 0-1.22.479-1.592 1.132a4.61 4.61 0 00-.277.582zm-.217.685z" fill="#162D45"/></svg>
